components/Icon/icons/postgresql.svg

<svg width="49" height="50" viewBox="0 0 49 50" fill="none" xmlns="http://www.w3.org/2000/svg">
<g clip-path="url(#clip0)">
<path d="M48.1461 29.9406C47.8563 29.0601 47.0971 28.4468 46.1153 28.2997C45.6524 28.2304 45.1222 28.2599 44.4948 28.3896C43.4013 28.616 42.59 28.7021 41.9979 28.7188C44.2328 24.9338 46.05 20.6175 47.0961 16.5544C48.7878 9.98453 47.8838 6.99154 46.8275 5.63775C44.0319 2.05442 39.9532 0.129419 35.0326 0.0705179C32.4077 0.0383209 30.1034 0.558207 28.9013 0.932071C27.7821 0.733965 26.5786 0.623359 25.3159 0.602904C22.9489 0.565025 20.8576 1.08264 19.0706 2.14646C18.0812 1.81086 16.4934 1.33775 14.6598 1.03586C10.3471 0.325631 6.87129 0.879041 4.32888 2.68075C1.25028 4.86218 -0.176877 8.65234 0.0870685 13.9459C0.170897 15.6266 1.10811 20.7402 2.58379 25.5898C3.43189 28.3773 4.33625 30.6921 5.27176 32.4705C6.59847 34.9923 8.01808 36.4773 9.61176 37.0107C10.505 37.3092 12.1279 37.5182 13.8349 36.0921C14.0512 36.355 14.3399 36.6162 14.723 36.8588C15.2095 37.1665 15.8045 37.4181 16.3986 37.5671C18.5398 38.104 20.5455 37.9698 22.2566 37.2171C22.2672 37.5224 22.2753 37.8141 22.2821 38.066C22.2934 38.4745 22.3047 38.8751 22.3196 39.2497C22.421 41.7826 22.5928 43.7521 23.1019 45.1302C23.1298 45.2059 23.1674 45.3215 23.207 45.444C23.461 46.2239 23.8856 47.5296 24.9659 48.5521C26.0845 49.6114 27.4377 49.9362 28.677 49.9362C29.2985 49.9362 29.8916 49.8544 30.4117 49.7427C32.2657 49.344 34.3714 48.7368 35.8947 46.561C37.3349 44.5042 38.035 41.4063 38.1616 36.5251C38.1781 36.387 38.1932 36.2552 38.2077 36.1296L38.2379 35.8717L38.5772 35.9016L38.6646 35.9074C40.553 35.9938 42.8621 35.5921 44.2802 34.9313C45.4007 34.4097 48.9915 32.508 48.1461 29.9406" fill="black"/>
<path d="M44.9172 30.4398C39.3022 31.6017 38.9161 29.6947 38.9161 29.6947C44.8445 20.8702 47.3229 9.66892 45.1843 6.92744C39.3496 -0.550779 29.2496 2.98596 29.081 3.07763L29.0268 3.08748C27.9174 2.85642 26.6761 2.71892 25.2806 2.696C22.7401 2.65433 20.8128 3.36418 19.3503 4.47668C19.3503 4.47668 1.33297 -2.96915 2.17106 13.8411C2.34929 17.4172 7.2808 40.9004 13.1627 33.8074C15.3126 31.2136 17.39 29.0206 17.39 29.0206C18.4216 29.7081 19.6568 30.0589 20.9516 29.9329L21.0522 29.8473C21.0209 30.1693 21.0352 30.4843 21.0924 30.8572C19.5771 32.5555 20.0225 32.8536 16.9933 33.4791C13.9281 34.1129 15.7287 35.2409 16.9044 35.536C18.3297 35.8934 21.6269 36.3998 23.8548 33.2712L23.7661 33.6282C24.3596 34.1053 24.7765 36.731 24.7067 39.1115C24.6368 41.4918 24.5902 43.1261 25.0578 44.4026C25.5259 45.6791 25.992 48.5513 29.9742 47.6954C33.3015 46.9801 35.0258 45.1265 35.2658 42.0344C35.4359 39.8363 35.8213 40.1613 35.8454 38.196L36.1545 37.2657C36.5108 34.286 36.2111 33.3246 38.261 33.7718L38.7594 33.8157C40.2679 33.8844 42.2428 33.5721 43.4018 33.0318C45.8974 31.8701 47.3776 29.9301 44.9168 30.4398H44.9172" fill="#336791"/>
<path d="M20.405 15.4403C19.899 15.3697 19.4408 15.435 19.209 15.6112C19.0787 15.7102 19.0383 15.825 19.0273 15.904C18.9982 16.1133 19.1444 16.3447 19.2343 16.464C19.4884 16.8019 19.8596 17.0341 20.227 17.0852C20.2802 17.0928 20.3333 17.0962 20.3859 17.0962C20.9986 17.0962 21.5558 16.6176 21.6048 16.2644C21.6662 15.822 21.026 15.5271 20.405 15.4405" fill="white"/>
<path d="M37.1676 15.4544C37.1193 15.1076 36.5042 15.0088 35.9204 15.0902C35.3374 15.1716 34.7721 15.4357 34.8193 15.7832C34.8571 16.0535 35.3436 16.5148 35.9194 16.5148C35.9682 16.5148 36.0172 16.5116 36.0667 16.5046C36.4511 16.4512 36.7332 16.2063 36.8672 16.0652C37.0711 15.8501 37.1893 15.6103 37.1676 15.4544" fill="white"/>
<path d="M46.7856 30.3077C46.5715 29.6583 45.8824 29.4494 44.7375 29.6865C41.3381 30.3903 40.1207 29.9028 39.721 29.6076C42.3633 25.5697 44.5369 20.6886 45.7096 16.1346C46.2651 13.9774 46.5719 11.974 46.597 10.3411C46.6247 8.54884 46.3204 7.23179 45.6928 6.42725C43.1625 3.18388 39.4487 1.4441 34.9534 1.39638C31.8629 1.36153 29.2517 2.1549 28.7455 2.37801C27.6796 2.1121 26.5175 1.94884 25.2523 1.92801C22.9323 1.89032 20.9269 2.44751 19.2665 3.58331C18.5453 3.31399 16.6815 2.67213 14.4021 2.30376C10.4614 1.6674 7.32991 2.1496 5.09525 3.73766C2.4288 5.63274 1.19781 9.02024 1.43627 13.8058C1.51651 15.4159 2.43107 20.3689 3.87427 25.1123C5.77399 31.3555 7.83911 34.8897 10.0118 35.6168C10.2662 35.7019 10.5594 35.7613 10.8828 35.7613C11.6754 35.7613 12.6471 35.403 13.6582 34.1837C14.8914 32.6997 16.167 31.2517 17.4835 29.8416C18.3376 30.3015 19.276 30.5583 20.2357 30.5841C20.2376 30.6093 20.24 30.6344 20.2423 30.6594C20.0771 30.8571 19.9153 31.0575 19.7571 31.2608C19.0921 32.1076 18.9537 32.2839 16.8133 32.7259C16.2044 32.8521 14.5873 33.1863 14.5635 34.3235C14.5378 35.5659 16.4751 36.0877 16.6958 36.143C17.465 36.3361 18.206 36.4314 18.9127 36.4314C20.6314 36.4314 22.1439 35.8647 23.3526 34.7683C23.3154 39.1975 23.4995 43.5619 24.0296 44.8916C24.4639 45.9803 25.5246 48.6407 28.8751 48.6405C29.3667 48.6405 29.9078 48.5831 30.5031 48.4551C33.9999 47.7032 35.5184 46.1528 36.1058 42.7348C36.4202 40.9081 36.9596 36.5462 37.2133 34.2064C37.7488 34.374 38.4381 34.4507 39.1833 34.4505C40.7375 34.4505 42.5309 34.1193 43.6556 33.5956C44.9191 33.007 47.1991 31.5627 46.7856 30.3077V30.3077ZM38.4583 14.4971C38.4468 15.1879 38.352 15.8149 38.2515 16.4695C38.1434 17.1735 38.0316 17.9013 38.0035 18.7848C37.9757 19.6447 38.0828 20.5386 38.1862 21.4032C38.3954 23.1494 38.6101 24.9471 37.7792 26.721C37.6411 26.4757 37.5182 26.2221 37.411 25.9617C37.3077 25.7106 37.0834 25.3072 36.7728 24.7488C35.5647 22.5754 32.7355 17.4856 34.1838 15.4087C34.6152 14.7905 35.7101 14.1549 38.4583 14.4971V14.4971ZM35.1271 2.79505C39.155 2.88426 42.3412 4.39581 44.597 7.28748C46.3272 9.50547 44.422 19.5977 38.9065 28.3043C38.851 28.2336 38.7953 28.1631 38.7392 28.0928L38.6694 28.0053C40.0946 25.6441 39.816 23.3079 39.5679 21.2367C39.4659 20.3867 39.3696 19.5839 39.3942 18.8297C39.4195 18.0305 39.5248 17.3449 39.6268 16.682C39.7519 15.8651 39.8794 15.0199 39.8443 14.0235C39.8705 13.9189 39.8811 13.7954 39.8673 13.6488C39.7776 12.6933 38.6901 9.83369 36.4736 7.24543C35.2611 5.82971 33.493 4.24543 31.0788 3.17687C32.1172 2.96096 33.5372 2.75963 35.1271 2.79505V2.79505ZM12.5882 33.2913C11.4743 34.6348 10.7051 34.3772 10.4521 34.2928C8.80389 33.7413 6.89133 30.2466 5.20513 24.7049C3.74607 19.9098 2.89344 15.088 2.82585 13.736C2.61288 9.45982 3.6462 6.47971 5.89728 4.87819C9.5608 2.27213 15.584 3.83198 18.0042 4.62308C17.9695 4.65755 17.9332 4.68975 17.8989 4.72479C13.9272 8.74827 14.0214 15.6225 14.0313 16.0428C14.0309 16.2049 14.0445 16.4344 14.063 16.7502C14.1313 17.9064 14.2586 20.0583 13.9187 22.4952C13.6031 24.7598 14.299 26.9763 15.8277 28.5765C15.9846 28.7404 16.1495 28.8964 16.3218 29.0439C15.6414 29.775 14.1625 31.3916 12.5882 33.2913V33.2913ZM16.8323 27.6108C15.6002 26.321 15.0406 24.5271 15.2968 22.6884C15.6555 20.1142 15.5232 17.8721 15.452 16.6676C15.442 16.499 15.4331 16.3513 15.428 16.2348C16.0082 15.7187 18.6969 14.2736 20.6144 14.7144C21.4893 14.9153 22.0225 15.513 22.2441 16.5411C23.3913 21.8636 22.3959 24.082 21.5962 25.8647C21.4314 26.232 21.2756 26.5791 21.1427 26.9382L21.0396 27.2159C20.7787 27.9178 20.5359 28.5704 20.3854 29.1901C19.0755 29.1863 17.8013 28.625 16.8323 27.6106V27.6108ZM17.0334 34.7888C16.6509 34.693 16.3069 34.5265 16.1051 34.3884C16.2737 34.3089 16.5737 34.2005 17.094 34.093C19.6121 33.5731 20.001 33.206 20.8502 32.1244C21.0449 31.8763 21.2656 31.5952 21.5713 31.2528L21.5716 31.2524C22.0268 30.7411 22.2351 30.8278 22.6127 30.985C22.9187 31.1119 23.2169 31.4968 23.3377 31.9202C23.3949 32.1202 23.4591 32.4998 23.2489 32.7952C21.475 35.2869 18.8899 35.2549 17.0334 34.7888V34.7888ZM30.2116 47.0903C27.1311 47.7524 26.0404 46.1757 25.3216 44.3733C24.8577 43.2096 24.6297 37.9623 24.7915 32.1674C24.7935 32.0903 24.7826 32.0159 24.7614 31.9458C24.7425 31.8074 24.7138 31.6706 24.6753 31.5363C24.4348 30.6932 23.8486 29.9879 23.1453 29.6954C22.8659 29.5793 22.3531 29.3663 21.7368 29.5244C21.8682 28.9812 22.0961 28.3678 22.3433 27.7036L22.4469 27.4242C22.5636 27.1093 22.7101 26.7829 22.8649 26.4375C23.7019 24.5723 24.8481 22.0176 23.6041 16.2462C23.1381 14.0844 21.582 13.0288 19.2231 13.274C17.809 13.4208 16.5151 13.9932 15.8698 14.3214C15.731 14.3918 15.6042 14.46 15.4856 14.5263C15.6657 12.3483 16.3462 8.27782 18.8916 5.70244C20.4943 4.08123 22.6287 3.28047 25.2293 3.32365C30.3534 3.40774 33.6393 6.04562 35.4937 8.24391C37.0917 10.138 37.957 12.0462 38.3023 13.0754C35.7054 12.8104 33.9391 13.3246 33.0438 14.6087C31.0959 17.4019 34.1094 22.8231 35.5577 25.4286C35.8234 25.906 36.0526 26.3187 36.1247 26.4941C36.5963 27.6407 37.2069 28.4062 37.6527 28.9649C37.7894 29.1361 37.9219 29.3022 38.0227 29.4473C37.2362 29.6748 35.8234 30.2004 35.9521 32.8274C35.8483 34.1456 35.1099 40.3172 34.7347 42.4977C34.2395 45.3784 33.1828 46.4513 30.2116 47.0905V47.0903ZM43.0698 32.3297C42.2655 32.7041 40.9195 32.985 39.6409 33.0454C38.2287 33.1117 37.5097 32.8867 37.3406 32.7483C37.2613 31.1111 37.8686 30.9401 38.5115 30.7591C38.6125 30.7307 38.7111 30.7028 38.8062 30.6695C38.8653 30.7178 38.9301 30.7657 39.0011 30.8127C40.1362 31.5642 42.1607 31.6452 45.019 31.0534L45.0503 31.0471C44.6648 31.4087 44.0051 31.8939 43.0698 32.3297Z" fill="white"/>
</g>
<defs>
<clipPath id="clip0">
<rect width="48.3333" height="50" fill="white"/>
</clipPath>
</defs>
</svg>

<svg xmlns="http://www.w3.org/2000/svg" viewBox="0 0 49 50" width="100%" height="100%" fill="none"  xmlns:v="https://vecta.io/nano"><g clip-path="url(#A)"><path d="M48.146 29.941c-.29-.881-1.049-1.494-2.031-1.641-.463-.069-.993-.04-1.62.09-1.093.226-1.905.313-2.497.329 2.235-3.785 4.052-8.101 5.098-12.164 1.692-6.57.788-9.563-.269-10.917C44.032 2.054 39.953.129 35.033.071c-2.625-.032-4.929.488-6.131.862a22.76 22.76 0 0 0-3.585-.329c-2.367-.038-4.458.48-6.245 1.544-.989-.336-2.577-.809-4.411-1.111C10.347.326 6.871.879 4.329 2.681 1.25 4.862-.177 8.652.087 13.946.171 15.627 1.108 20.74 2.584 25.59c.848 2.788 1.752 5.102 2.688 6.881 1.327 2.522 2.746 4.007 4.34 4.54.893.298 2.516.508 4.223-.919.216.263.505.524.888.767a5.9 5.9 0 0 0 1.676.708c2.141.537 4.147.403 5.858-.35l.026.849.038 1.184c.101 2.533.273 4.502.782 5.881a9.57 9.57 0 0 1 .105.314c.254.78.679 2.086 1.759 3.108 1.119 1.059 2.472 1.384 3.711 1.384.622 0 1.215-.082 1.735-.194 1.854-.399 3.96-1.006 5.483-3.182 1.44-2.057 2.14-5.155 2.267-10.036l.076-.653.339.03.087.006c1.888.086 4.197-.315 5.616-.976 1.12-.522 4.711-2.423 3.866-4.991" fill="#000"/><path d="M44.917 30.44c-5.615 1.162-6.001-.745-6.001-.745 5.928-8.824 8.407-20.026 6.268-22.767C39.35-.551 29.25 2.986 29.081 3.078l-.054.01c-1.109-.231-2.351-.369-3.746-.391-2.54-.042-4.468.668-5.93 1.781 0 0-18.017-7.446-17.179 9.364.178 3.576 5.11 27.059 10.992 19.966 2.15-2.594 4.227-4.787 4.227-4.787 1.032.688 2.267 1.038 3.562.912l.101-.086a3.95 3.95 0 0 0 .04 1.01c-1.515 1.698-1.07 1.996-4.099 2.622-3.065.634-1.265 1.762-.089 2.057 1.425.357 4.723.864 6.95-2.265l-.089.357c.593.477 1.01 3.103.941 5.483s-.117 4.015.351 5.291.934 4.149 4.916 3.293c3.327-.715 5.052-2.569 5.292-5.661.17-2.198.556-1.873.58-3.838l.309-.93c.356-2.98.057-3.941 2.107-3.494l.498.044c1.508.069 3.483-.244 4.642-.784 2.496-1.162 3.976-3.102 1.515-2.592h0" fill="#336791"/><g fill="#fff"><path d="M20.405 15.44c-.506-.071-.964-.005-1.196.171a.44.44 0 0 0-.182.293c-.029.209.117.441.207.56.254.338.625.57.993.621.053.008.106.011.159.011.613 0 1.17-.479 1.219-.832.061-.442-.579-.737-1.2-.824m16.763.014c-.048-.347-.663-.446-1.247-.364s-1.148.346-1.101.693c.038.27.524.732 1.1.732a1.05 1.05 0 0 0 .147-.01c.384-.053.666-.298.8-.439.204-.215.322-.455.3-.611m9.619 14.853c-.214-.649-.903-.858-2.048-.621-3.399.704-4.617.216-5.017-.079 2.642-4.038 4.816-8.919 5.989-13.473.555-2.157.862-4.161.887-5.793.028-1.792-.277-3.109-.904-3.914-2.53-3.243-6.244-4.983-10.739-5.031-3.091-.035-5.702.759-6.208.982a15.43 15.43 0 0 0-3.493-.45c-2.32-.038-4.325.519-5.986 1.655a26.72 26.72 0 0 0-4.864-1.28c-3.941-.636-7.072-.154-9.307 1.434-2.667 1.895-3.898 5.282-3.66 10.068.08 1.61.995 6.563 2.438 11.307 1.9 6.243 3.965 9.777 6.138 10.504a2.74 2.74 0 0 0 .871.145c.793 0 1.764-.358 2.775-1.578a100.26 100.26 0 0 1 3.825-4.342 6.15 6.15 0 0 0 2.752.742l.007.075c-.165.198-.327.398-.485.601-.665.847-.803 1.023-2.944 1.465-.609.126-2.226.46-2.25 1.598-.026 1.242 1.912 1.764 2.132 1.819a9.11 9.11 0 0 0 2.217.288c1.719 0 3.231-.567 4.44-1.663-.037 4.429.147 8.794.677 10.123.434 1.089 1.495 3.749 4.846 3.749a7.75 7.75 0 0 0 1.628-.185c3.497-.752 5.015-2.302 5.603-5.72.314-1.827.854-6.189 1.107-8.528.536.168 1.225.244 1.97.244 1.554 0 3.348-.331 4.472-.855 1.264-.589 3.544-2.033 3.13-3.288h0zm-8.327-15.811c-.011.691-.106 1.318-.207 1.972-.108.704-.22 1.432-.248 2.315-.028.86.079 1.754.183 2.618.209 1.746.424 3.544-.407 5.318a6.91 6.91 0 0 1-.368-.759c-.103-.251-.328-.654-.638-1.213-1.208-2.173-4.037-7.263-2.589-9.34.431-.618 1.526-1.254 4.275-.912h0zM35.127 2.795c4.028.089 7.214 1.601 9.47 4.492 1.73 2.218-.175 12.31-5.69 21.017l-.167-.212-.07-.088c1.425-2.361 1.147-4.697.898-6.769-.102-.85-.198-1.653-.174-2.407.025-.799.131-1.485.233-2.148.125-.817.253-1.662.217-2.658a1.11 1.11 0 0 0 .023-.375c-.09-.955-1.177-3.815-3.394-6.403-1.212-1.416-2.981-3-5.395-4.069a18.15 18.15 0 0 1 4.048-.382h0zM12.588 33.291c-1.114 1.343-1.883 1.086-2.136 1.002-1.648-.551-3.561-4.046-5.247-9.588-1.459-4.795-2.312-9.617-2.379-10.969-.213-4.276.82-7.256 3.071-8.858 3.664-2.606 9.687-1.046 12.107-.255l-.105.102c-3.972 4.023-3.878 10.898-3.868 11.318 0 .162.013.392.032.707.068 1.156.196 3.308-.144 5.745-.316 2.265.38 4.481 1.909 6.081a6.86 6.86 0 0 0 .494.467 102.43 102.43 0 0 0-3.734 4.247h0zm4.244-5.68c-1.232-1.29-1.792-3.084-1.536-4.922.359-2.574.226-4.816.155-6.021l-.024-.433c.58-.516 3.269-1.961 5.186-1.52.875.201 1.408.799 1.63 1.827 1.147 5.323.152 7.541-.648 9.324-.165.367-.321.714-.453 1.073l-.103.278c-.261.702-.504 1.354-.654 1.974-1.31-.004-2.584-.565-3.553-1.579h0zm.201 7.178a3.07 3.07 0 0 1-.928-.4c.169-.079.469-.188.989-.295 2.518-.52 2.907-.887 3.756-1.969.195-.248.415-.529.721-.872h0c.455-.511.663-.425 1.041-.267.306.127.604.512.725.935.057.2.121.58-.089.875-1.774 2.492-4.359 2.46-6.215 1.994h0zM30.212 47.09c-3.081.662-4.171-.915-4.89-2.717-.464-1.164-.692-6.411-.53-12.206a.7.7 0 0 0-.03-.222 2.92 2.92 0 0 0-.086-.409c-.241-.843-.827-1.548-1.53-1.841-.279-.116-.792-.329-1.408-.171.131-.543.359-1.157.607-1.821l.104-.279a16.71 16.71 0 0 1 .418-.987c.837-1.865 1.983-4.42.739-10.191-.466-2.162-2.022-3.217-4.381-2.972-1.414.147-2.708.719-3.353 1.047a10.72 10.72 0 0 0-.384.205c.18-2.178.861-6.248 3.406-8.824 1.603-1.621 3.737-2.422 6.338-2.379 5.124.084 8.41 2.722 10.264 4.92 1.598 1.894 2.463 3.802 2.809 4.831-2.597-.265-4.363.249-5.259 1.533-1.948 2.793 1.066 8.214 2.514 10.82.266.477.495.89.567 1.066.472 1.147 1.082 1.912 1.528 2.471.137.171.269.337.37.482-.787.228-2.199.753-2.071 3.38-.104 1.318-.842 7.49-1.217 9.67-.495 2.881-1.552 3.954-4.523 4.593h0zM43.07 32.33c-.804.374-2.15.655-3.429.716-1.412.066-2.131-.159-2.3-.297-.079-1.637.528-1.808 1.171-1.989a4.94 4.94 0 0 0 .295-.09 2.41 2.41 0 0 0 .195.143c1.135.752 3.16.832 6.018.241l.031-.006c-.386.362-1.045.847-1.98 1.283z"/></g></g><defs><clipPath id="A"><path fill="#fff" d="M0 0h48.333v50H0z"/></clipPath></defs></svg>
